!!!ONB: MCCC : IGF0112_03 : Extracted Monophonic Melody
!!!COM: Fauré, Gabriel
!!!OPR: Violin Sonata No.1
!!!OMV: 3
!!!SCT: Op.13
!!!ODT: 1875///
**kern
*staff1
*clefG2
*k[f#c#g#]
*A:
*M2/8
=4
16ccc#
16bb
16aa
16ff#
=5
16dd
16dd
16cc#
16b
=6
8aa
8aa
=7
16a
16a
16b
16cc#
=8
16dd
16dd
16ee
16ff#
=9
8aa
8aa
=10
4r
=11
4r
=12
4r
=13
16ccc#
16bb
16aa
16ee
=14
8cc#
8cc#
=15
4r
=16
4r
=17
8r
8gg
=18
4r
=19
4r
=20
16bb
16aa
16gg
16dd
=21
16b
16a
16g
16a
=22
8e#
8e#
=23
4r
=24
4r
=25
8r
8gg#
=26
4r
=27
4r
=28
8r
8gg#
=29
4r
=30
4r
=31
8r
8ff#
=32
4r
=33
4r
=34
8r
8ff#
=35
4r
=36
4r
=37
16bb
16gg
16dd
16b
=38
16g
16a
16b
16cc
=39
16b
16cc
16dd
16bb
=40
16aa#
16bb
16ccc
16ccc#
=41
16ddd
16bb
16ee#
16dd
=42
8b
8b
=43
4r
=44
4r
=45
4r
=46
4r
=47
4r
=48
8ddd
8r
=49
4r
=50
4r
=51
8ddd
8r
=52
4r
=53
8ddd
8r
=54
4r
=55
4r
=56
4r
=57
4r
=58
4r
=59
16a
16a
16b
16cc#
=60
16dd
16dd
16ee
16ff#
=61
8aa
8aa
=62
16ccc#
16bb
16aa
16ff#
=63
16dd
16dd
16cc#
16b
=64
8aa
8aa
=65
16a
16a
16b
16cc#
=66
16dd
16dd
16ee
16ff#
=67
8aa
8aa
=68
16ccc#
16bb
16aa
16ff#
=69
16dd
16dd
16cc#
16b
=70
8aa
8aa
=71
16ccc#
16bb
16aa
16ee
=72
8cc#
8cc#
=73
16ccc#
16bb
16aa
16ee
=74
16cc#
16a
16g#
16a
=75
8f#
8f#
=76
16bb
16aa
16gg#
16dd#
=77
8b
8b
=78
16bb
16aa
16gg#
16dd#
=79
16b
16g#
16f#
16g#
=80
8e
8e
=81
16aa
16gg#
16ff#
16cc#
=82
8a
8a
=83
16aa
16gg#
16ff#
16cc#
=84
16a
16f#
16e
16f#
=85
8d#
8d#
=86
4r
=87
4r
=88
4r
=89
16d
16d
16d#
16e#
=90
16f#
16f#
16g#
16a#
=91
16dd
16dd
16dd#
16ee#
=92
8bb
8aa#
=93
8ee#
8dd#
=94
8b
8a#
=95
16e
16e
16e#
16f##
=96
16g#
16g#
16a#
16cc
=97
16ee
16ee
16ee#
16ff##
=98
*M3/4
4gg#
4r
4g#
=99
4a#
4b#
4cc#
=100
4ee#
4cc##
4dd#
=101
4ee#
4ff#
4gg
=102
4aa#
4ff##
4gg#
=103
4aa#
4ccc
4ddd
=104
4eee#
4ddd#
4ccc#
=105
4bb#
4aa#
4gg#
=106
4ff#
4ee#
4dd#
=107
4cc#
4cc
4b
=108
4a#
4a
4g#
=109
4f#
4e#
4d#
=110
*M2/8
8c#
8r
=111
4r
=112
4r
=113
16ee#
16dd#
16cc#
16a#
=114
16f#
16f#
16e#
16d#
=115
8cc#
8cc#
=116
16c#
16c#
16d#
16e#
=117
16f#
16f#
16g#
16a#
=118
8cc#
8cc#
=119
4r
=120
4r
=121
4r
=122
8A#
8c#
=123
8f#
8c#
=124
8A#
8c#
=125
8f#
8cc#
=126
8a#
8cc#
=127
8ff#
8ccc#
=128
8aa#
8r
=129
8gg#
8r
=130
8cc#
8r
=131
8ccc#
8r
=132
4r
=133
*M3/4
4ccc#
4bb
4aa
=134
8gg#
8aa
8gg#
8ff#
8gg#
8aa
=135
4bb
4aa
4gg#
=136
8ff#
8gg#
8ff#
8ee#
8ff#
8gg#
=137
4aa
4gg#
4ff#
=138
8ee
8ff#
8ee
8dd
8ee
8ff#
=139
4cc#
4cc#
4cc#
=140
2.cc#
=141
4ccc#
4bb
4aa
=142
8gg#
8aa
8gg#
8ff#
8gg#
8aa
=143
4bb
4aa
4gg#
=144
8ff#
8gg#
8ff#
8ee#
8ff#
8gg#
=145
4aa
4gg#
4ff#
=146
8ee
8ff#
8ee
8dd
8ee
8ff#
=147
4cc#
4cc#
4cc#
=148
2.cc#
=149
2.r
=150
2.r
=151
2.r
=152
2.r
=153
2.r
=154
2.r
=155
2.r
=156
2.r
=157
2.r
=158
2.r
=159
2.r
=160
2.r
=161
2.r
=162
2.r
=163
2.r
=164
2.r
=165
2.ccc#[
=166
4ccc#]
4bb
4aa
=167
8gg#
8aa
8gg#
8ff#
8gg#
8aa
=168
4bb
4aa
4gg#
=169
8ff#
8gg#
8ff#
8ee#
8ff#
8gg#
=170
4aa
4gg#
4ff#
=171
8ee
8ff#
8ee
8dd
8ee
8ff#
=172
4cc#
4cc#
4cc#
=173
2.cc#
=174
2.r
=175
2.r
=176
2.r
=177
2.r
=178
2.r
=179
2.r
=180
2.r
=181
4r
4r
4ccc#[
=182
4ccc#]
4bb
4aa
=183
8gg#
8aa
8gg#
8ff#
8gg#
8aa
=184
4bb
4aa
4gg#
=185
8ff#
8gg#
8ff#
8ee#
8ff#
8gg#
=186
4aa
4gg#
4ff#
=187
8ee
8ff#
8ee
8dd
8ee
8ff#
=188
4cc#
4cc#
4cc#
=189
4cc#
4r
4r
=190
2.r
=191
8e
8f#
8e
8d
8e
8f#
=192
4c#
4c#
4c#
=193
4c#
4r
4r
=194
2.r
=195
8e
8f#
8e
8d
8e
8f#
=196
4c#
4c#
4c#
=197
4r
8e
8d
8e
8f#
=198
4r
4c#
4c#
=199
2.r
=200
2.r
=201
2.r
=202
2.r
=203
8A
8A
8B
8c#
8d
8d
=204
8e
8f#
8a
8a
8b
8cc#
=205
8dd
8dd
8ee
8ff#
8aa
8aa
=206
8bb
8ccc#
8ddd
8ddd
8eee
8fff#
=207
*M2/8
8aaa
8r
=208
4r
=209
4r
=210
16ccc#
16bb
16aa
16ff#
=211
16dd
16dd
16cc#
16b
=212
8aa
8aa
=213
16a
16a
16b
16cc#
=214
16dd
16dd
16ee
16ff#
=215
8aa
8aa
=216
4r
=217
4r
=218
4r
=219
16ccc#
16bb
16aa
16ee
=220
8cc#
8cc#
=221
4r
=222
4r
=223
8r
8gg
=224
4r
=225
4r
=226
16bb
16aa
16gg
16dd
=227
16b
16a
16g
16a
=228
8e#
8e#
=229
4r
=230
4r
=231
8r
8gg#
=232
4r
=233
4r
=234
8r
8gg#
=235
4r
=236
4r
=237
8r
8ff#
=238
4r
=239
4r
=240
8r
8ff#
=241
4r
=242
4r
=243
16bb
16gg
16dd
16b
=244
16g
16a
16b
16cc
=245
16b
16cc
16dd
16bb
=246
16aa#
16bb
16ccc
16ccc#
=247
16ddd
16bb
16ee#
16dd
=248
8b
8b
=249
4r
=250
4r
=251
4r
=252
4r
=253
4r
=254
8ddd
8r
=255
4r
=256
4r
=257
8ddd
8r
=258
4r
=259
8ddd
8r
=260
4r
=261
4r
=262
4r
=263
4r
=264
4r
=265
16a
16a
16b
16cc#
=266
16dd
16dd
16ee
16ff#
=267
8aa
8aa
=268
16ccc#
16bb
16aa
16ff#
=269
16dd
16dd
16cc#
16b
=270
8aa
8aa
=271
16a
16a
16b
16cc#
=272
16dd
16dd
16ee
16ff#
=273
8aa
8aa
=274
16ccc#
16bb
16aa
16ff#
=275
16dd
16dd
16cc#
16b
=276
8aa
8aa
=277
16ccc#
16bb
16aa
16ee
=278
8cc#
8cc#
=279
16ccc#
16bb
16aa
16ee
=280
16cc#
16a
16g#
16a
=281
8f#
8f#
=282
16bb
16aa
16gg#
16dd#
=283
8b
8b
=284
16bb
16aa
16gg#
16dd#
=285
16b
16g#
16f#
16g#
=286
8e
8e
=287
16aa
16gg#
16ff#
16cc#
=288
8a
8a
=289
16aa
16gg#
16ff#
16cc#
=290
16a
16f#
16e
16f#
=291
8d#
8d#
=292
4r
=293
4r
=294
4r
=295
16a#
16a#
16b
16cc#
=296
16dd
16dd
16ee
16ff#
=297
16aa#
16aa#
16bb
16ccc#
=298
8ggg
8fff#
=299
8ccc#
8bb
=300
8gg
8ff#
=301
16cc
16cc
16cc#
16dd#
=302
16ee
16ee
16ff#
16gg#
=303
16ccc
16ccc
16ccc#
16ddd#
=304
*M3/4
4eee
4r
4e
=305
4f#
4g#
4a
=306
4cc#
4a#
4b
=307
4cc#
4dd
4dd#
=308
4ff#
4dd#
4ee
=309
4ff#
4gg#
4aa#
=310
4ccc#
4bb
4aa
=311
4gg#
4ff#
4ee
=312
4dd
4cc#
4b
=313
4a
4g#
4g
=314
4f#
4e#
4e
=315
4d
4c#
4B
=316
*M2/8
8A
8r
=317
4r
=318
4r
=319
16cc#
16b
16a
16f#
=320
16d
16d
16c#
16B
=321
8a
8a
=322
16A
16A
16B
16c#
=323
16d
16d
16e
16f#
=324
8a
8a
=325
4r
=326
4r
=327
4r
=328
4r
=329
4a[
=330
8a]
8r
=331
4r
=332
4a[
=333
8a]
8r
=334
8dd
8r
=335
8ee
8r
=336
8ff#
8r
=337
8aa
8r
=338
4a[
=339
8a]
8r
=340
8dd
8r
=341
8ee
8r
=342
8ff#
8r
=343
8aa
8r
=344
8r
8gg#
=345
8ff#
8fff#
=346
8eee#
8ee#
=347
8ee
8e
=348
8d#
8dd#
=349
8dd
8ddd
=350
8ccc#
8cc#
=351
8b
8B
=352
8A
8r
=353
8aa
8r
==
*-
